;Project Electronics Mount
;Created by Estlcam version 11 build 11.236
;Machining time about 00:15:13 hours

G90
M03 S20000
G00 X0.0000 Y0.0000 Z0.0000
G00 Z2.5000


;No. 1: Drill 4
G00 X10.8627 Y17.8600
G00 Z0.5000
G01 Z-2.0000 F120 S20000
G00 Z0.5000
G00 Z-1.5000
G01 Z-4.0000
G00 Z0.5000
G00 Z-3.5000
G01 Z-6.0000
G00 Z0.5000
G00 Z-5.5000
G01 Z-8.0000
G00 Z0.5000
G00 Z-7.5000
G01 Z-10.0000
G00 Z0.5000
G00 Z-9.5000
G01 Z-12.0000
G00 Z0.5000
G00 Z-11.5000
G01 Z-13.0000
G00 Z2.5000


;No. 2: Drill 5
G00 X59.1227 Y16.5900 Z2.5000
G00 Z0.5000
G01 Z-2.0000 F120
G00 Z0.5000
G00 Z-1.5000
G01 Z-4.0000
G00 Z0.5000
G00 Z-3.5000
G01 Z-6.0000
G00 Z0.5000
G00 Z-5.5000
G01 Z-8.0000
G00 Z0.5000
G00 Z-7.5000
G01 Z-10.0000
G00 Z0.5000
G00 Z-9.5000
G01 Z-12.0000
G00 Z0.5000
G00 Z-11.5000
G01 Z-13.0000
G00 Z2.5000


;No. 3: Drill 7
G00 X81.2882 Y9.5377 Z2.5000
G00 Z0.5000
G01 Z-2.0000 F120
G00 Z0.5000
G00 Z-1.5000
G01 Z-4.0000
G00 Z0.5000
G00 Z-3.5000
G01 Z-6.0000
G00 Z0.5000
G00 Z-5.5000
G01 Z-8.0000
G00 Z0.5000
G00 Z-7.5000
G01 Z-10.0000
G00 Z0.5000
G00 Z-9.5000
G01 Z-12.0000
G00 Z0.5000
G00 Z-11.5000
G01 Z-13.0000
G00 Z2.5000


;No. 4: Drill 8
G00 X106.2882 Y9.5377 Z2.5000
G00 Z0.5000
G01 Z-2.0000 F120
G00 Z0.5000
G00 Z-1.5000
G01 Z-4.0000
G00 Z0.5000
G00 Z-3.5000
G01 Z-6.0000
G00 Z0.5000
G00 Z-5.5000
G01 Z-8.0000
G00 Z0.5000
G00 Z-7.5000
G01 Z-10.0000
G00 Z0.5000
G00 Z-9.5000
G01 Z-12.0000
G00 Z0.5000
G00 Z-11.5000
G01 Z-13.0000
G00 Z2.5000


;No. 5: Drill 11
G00 X123.5265 Y9.5377 Z2.5000
G00 Z0.5000
G01 Z-2.0000 F120
G00 Z0.5000
G00 Z-1.5000
G01 Z-4.0000
G00 Z0.5000
G00 Z-3.5000
G01 Z-6.0000
G00 Z0.5000
G00 Z-5.5000
G01 Z-8.0000
G00 Z0.5000
G00 Z-7.5000
G01 Z-10.0000
G00 Z0.5000
G00 Z-9.5000
G01 Z-12.0000
G00 Z0.5000
G00 Z-11.5000
G01 Z-13.0000
G00 Z2.5000


;No. 6: Drill 12
G00 X148.5265 Y9.5377 Z2.5000
G00 Z0.5000
G01 Z-2.0000 F120
G00 Z0.5000
G00 Z-1.5000
G01 Z-4.0000
G00 Z0.5000
G00 Z-3.5000
G01 Z-6.0000
G00 Z0.5000
G00 Z-5.5000
G01 Z-8.0000
G00 Z0.5000
G00 Z-7.5000
G01 Z-10.0000
G00 Z0.5000
G00 Z-9.5000
G01 Z-12.0000
G00 Z0.5000
G00 Z-11.5000
G01 Z-13.0000
G00 Z2.5000


;No. 7: Drill 13
G00 X148.5265 Y44.5377 Z2.5000
G00 Z0.5000
G01 Z-2.0000 F120
G00 Z0.5000
G00 Z-1.5000
G01 Z-4.0000
G00 Z0.5000
G00 Z-3.5000
G01 Z-6.0000
G00 Z0.5000
G00 Z-5.5000
G01 Z-8.0000
G00 Z0.5000
G00 Z-7.5000
G01 Z-10.0000
G00 Z0.5000
G00 Z-9.5000
G01 Z-12.0000
G00 Z0.5000
G00 Z-11.5000
G01 Z-13.0000
G00 Z2.5000


;No. 8: Drill 10
G00 X123.5265 Y44.5377 Z2.5000
G00 Z0.5000
G01 Z-2.0000 F120
G00 Z0.5000
G00 Z-1.5000
G01 Z-4.0000
G00 Z0.5000
G00 Z-3.5000
G01 Z-6.0000
G00 Z0.5000
G00 Z-5.5000
G01 Z-8.0000
G00 Z0.5000
G00 Z-7.5000
G01 Z-10.0000
G00 Z0.5000
G00 Z-9.5000
G01 Z-12.0000
G00 Z0.5000
G00 Z-11.5000
G01 Z-13.0000
G00 Z2.5000


;No. 9: Drill 9
G00 X106.2882 Y44.5377 Z2.5000
G00 Z0.5000
G01 Z-2.0000 F120
G00 Z0.5000
G00 Z-1.5000
G01 Z-4.0000
G00 Z0.5000
G00 Z-3.5000
G01 Z-6.0000
G00 Z0.5000
G00 Z-5.5000
G01 Z-8.0000
G00 Z0.5000
G00 Z-7.5000
G01 Z-10.0000
G00 Z0.5000
G00 Z-9.5000
G01 Z-12.0000
G00 Z0.5000
G00 Z-11.5000
G01 Z-13.0000
G00 Z2.5000


;No. 10: Drill 6
G00 X81.2882 Y44.5377 Z2.5000
G00 Z0.5000
G01 Z-2.0000 F120
G00 Z0.5000
G00 Z-1.5000
G01 Z-4.0000
G00 Z0.5000
G00 Z-3.5000
G01 Z-6.0000
G00 Z0.5000
G00 Z-5.5000
G01 Z-8.0000
G00 Z0.5000
G00 Z-7.5000
G01 Z-10.0000
G00 Z0.5000
G00 Z-9.5000
G01 Z-12.0000
G00 Z0.5000
G00 Z-11.5000
G01 Z-13.0000
G00 Z2.5000


;No. 11: Drill 3
G00 X54.0427 Y68.6600 Z2.5000
G00 Z0.5000
G01 Z-2.0000 F120
G00 Z0.5000
G00 Z-1.5000
G01 Z-4.0000
G00 Z0.5000
G00 Z-3.5000
G01 Z-6.0000
G00 Z0.5000
G00 Z-5.5000
G01 Z-8.0000
G00 Z0.5000
G00 Z-7.5000
G01 Z-10.0000
G00 Z0.5000
G00 Z-9.5000
G01 Z-12.0000
G00 Z0.5000
G00 Z-11.5000
G01 Z-13.0000
G00 Z2.5000


;No. 12: Drill 2
G00 X26.1027 Y68.6600 Z2.5000
G00 Z0.5000
G01 Z-2.0000 F120
G00 Z0.5000
G00 Z-1.5000
G01 Z-4.0000
G00 Z0.5000
G00 Z-3.5000
G01 Z-6.0000
G00 Z0.5000
G00 Z-5.5000
G01 Z-8.0000
G00 Z0.5000
G00 Z-7.5000
G01 Z-10.0000
G00 Z0.5000
G00 Z-9.5000
G01 Z-12.0000
G00 Z0.5000
G00 Z-11.5000
G01 Z-13.0000
G00 Z2.5000
G00 X0.0000 Y0.0000

M05
